!!!COM: Scriabin, Alexander
!!!OTL@@FR: Mazurka
!!!OPR@@FR: 9 Mazurkas
!!!OPS: 25
!!!ONM: 1
!!!ODT: 1899
!!!AGN: Mazurka
**kern	**kern	**dynam
*staff2	*staff1	*staff1/2
*Ipiano	*Ipiano	*
*clefF4	*clefG2	*
*k[b-e-a-d-]	*k[b-e-a-d-]	*
*f:	*f:	*
*M3/4	*M3/4	*
=1	=1	=1
*	*^	*
4CCC 4CC	2.ryy	8r	.
.	.	8bn	.
4C 4B-X 4en	.	8ccL	.
.	.	8qee-X/	.
.	.	8dd-J	.
4r	.	8e-XL	.
.	.	16r	.
.	.	16enJk	.
=2	=2	=2	=2
8r	2.ryy	4.a-	.
[8C	.	.	.
2C] 2B- 2en	.	.	.
.	.	4g-X	.
.	.	8gn	.
=3	=3	=3	=3
*^	*	*	*
*	*^	*	*	*
4.en	4.d-	2.F\	2.ryy	8b-L	.
.	.	.	.	8g	.
.	.	.	.	8b-	.
8f	4.c	.	.	8a-	.
4rc	.	.	.	8g	.
.	.	.	.	8fJ	.
*	*v	*v	*	*	*
=4	=4	=4	=4	=4
4c	2.A-	4raa	8enL	.
.	.	.	[8fJ	.
4Bn	.	8.ee-XL	2f]	.
.	.	16dd-Jk	.	.
[4c	.	4cc	.	.
=5	=5	=5	=5	=5
4.c]	2G	8raa	2.f	.
.	.	8ccL	.	.
.	.	8ff	.	.
4.B-X	.	8dd-	.	.
.	4D-	8f	.	.
.	.	8gJ	.	.
=6	=6	=6	=6	=6
4G	2.D-	8ccL	4.f	.
.	.	8b-	.	.
4A-	.	8a-	.	.
.	.	8B-	8rc	.
4B-	.	8g	4rc	.
.	.	8fJ	.	.
*	*	*v	*v	*
=7	=7	=7	=7
4rc	2.C	8fL	.
.	.	8e-	.
[4B- 4d-	.	8f	.
.	.	8en	.
4B-] 4dn	.	8f#X	.
.	.	8gJ	.
=8	=8	=8	=8
4rc	2.C	8a-L	.
.	.	8g-X	.
4B- 4e-X	.	8a-	.
.	.	8gn	.
4G 4en	.	8an	.
.	.	8b-J	.
*v	*v	*	*
=9	=9	=9
*	*^	*
4CCC 4CC	2.ryy	8r	.
.	.	8bn	.
4C 4B-X 4en	.	8ccL	.
.	.	8qee-X/	.
.	.	8dd-J	.
4r	.	8e-XL	.
.	.	16r	.
.	.	16enJk	.
=10	=10	=10	=10
8r	2.ryy	4.a-	.
[8C	.	.	.
2C] 2B- 2en	.	.	.
.	.	4g-X	.
.	.	8gn	.
=11	=11	=11	=11
*^	*	*	*
*	*^	*	*	*
4.en	4.d-	2.F\	2.ryy	8b-L	.
.	.	.	.	8g	.
.	.	.	.	8b-	.
8f	4.c	.	.	8a-	.
4rc	.	.	.	8g	.
.	.	.	.	8fJ	.
*	*v	*v	*	*	*
=12	=12	=12	=12	=12
4c	2.A-	4raa	8enL	.
.	.	.	8fJ	.
8.fL	.	8.aa-L	2cc	.
16e-XJk	.	16ggJk	.	.
4dn	.	4ff	.	.
*v	*v	*	*	*
=13	=13	=13	=13
[2.G [2.f	8raa	2.cc	.
.	8ggL	.	.
.	8ccc	.	.
.	8aa-	.	.
.	8cc	.	.
.	8ddnJ	.	.
=14	=14	=14	=14
2.G] 2.f]	8ggL	4.cc	.
.	8ff	.	.
.	8ee-	.	.
.	8f	8rc	.
.	8ddn	4rc	.
.	8ccJ	.	.
*	*v	*v	*
=15	=15	=15
*^	*	*
4.a-	2.G 2.f	8ccL	.
.	.	8b-	.
.	.	8cc	.
4g	.	8bn	.
.	.	8cc#X	.
8bn	.	8ddnJ	.
*v	*v	*	*
*clefG2	*	*
=16	=16	=16
*^	*	*
*	*^	*	*
4.bn	4.a-	2.c/	8ffL	.
.	.	.	8ddn	.
.	.	.	8ff	.
8cc	4.g	.	8ee-	.
4raa	.	.	8dd	.
.	.	.	8ccnJ	.
*v	*v	*v	*	*
*clefF4	*	*
=17	=17	=17
*^	*^	*
4rc	2.BB-	4raa	4rc	.
2E- 2dn	.	4.g 4.gg	2ddn	.
.	.	8g 8gg	.	.
=18	=18	=18	=18	=18
4E- 4dn	2.AAn	8gL 8gg	4ddn	.
.	.	8gJ	.	.
4G 4c	.	8f 8ff	4g 4cc	.
.	.	4e- 4ee-	.	.
4G 4c	.	.	4g 4cc	.
.	.	8c 8cc	.	.
=19	=19	=19	=19	=19
2.ryy	8BB-L 8B-	4raa	4rc	.
.	[8EE-J [8E-	.	.	.
.	4.EE-] 4.E-]	2b-	4c 4f#X	.
.	.	.	4B- 4g	.
.	8DDn 8Dn	.	.	.
=20	=20	=20	=20	=20
2.ryy	8DDnL 8Dn	4raa	4rc	.
.	8GGGJ 8GG	.	.	.
.	8r	8b-L	4dn	.
.	4CC 4C	8a-J	.	.
.	.	4g	4d	.
.	8BBB- 8BB-	.	.	.
=21	=21	=21	=21	=21
4rc	4AAA- 4AA-	4raa	4rc	.
2D-X 2c	2AA-	4.f 4.ff	2cc	.
.	.	8f 8ff	.	.
=22	=22	=22	=22	=22
4D- 4c	2.GG	8fL 8ff	4cc	.
.	.	8fJ	.	.
4F 4B-	.	8e- 8ee-	4f 4b-	.
.	.	4d- 4dd-	.	.
4F 4B-	.	.	4f 4b-	.
.	.	8B- 8b-	.	.
*v	*v	*	*	*
*	*v	*v	*
=23	=23	=23
8AA-L 8A-	4r	.
[8DD-J [8D-	.	.
4.DD-] 4.D-]	2En 2B- 2a-	.
8CC 8C	.	.
=24	=24	=24
*	*^	*
8CCL 8C	4raa	4rc	.
[8CCCJ [8CC	.	.	.
4CCC] 4CC]	8a-	4En 4B-	.
.	4g	.	.
4CCC 4CC	.	4E-X 4B-	.
.	8g-X	.	.
*	*v	*v	*
=25	=25	=25
4FFF 4FF	8r	.
.	8en	.
4FF 4E-X 4An	8fL	.
.	8qa-X/	.
.	8g-XJ	.
4r	8A-XL	.
.	16r	.
.	16AnJk	.
=26	=26	=26
4r	4.d-	.
4FF 4E- 4An	.	.
.	4c-X	.
4FF 4E- 4A	.	.
.	8cn	.
=27	=27	=27
*^	*	*
4rc	2.GGG-X 2.GG-X	8e-L	.
.	.	8B-	.
8rc	.	8e-	.
8Dn [8B-	.	8f	.
4E- 4B-]	.	8g-X	.
.	.	8b-J	.
=28	=28	=28	=28
*	*^	*	*
4rc	4rEE	2.GG-X/	4.dd-	.
8B-L	2E-	.	.	.
8cJ	.	.	8cc	.
.	.	.	8qdd-/	.
4d-	.	.	8ccL	.
.	.	.	8b-J	.
*v	*v	*v	*	*
=29	=29	=29
4AAA- 4AA-	8r	.
.	8gn	.
4AA- 4G-X 4c	8a-L	.
.	8qcc/	.
.	8b-J	.
4r	8c-XL	.
.	16r	.
.	16cnJk	.
=30	=30	=30
4r	4.f	.
4AA- 4G-X 4c	.	.
.	4dn	.
4AA- 4G- 4c	.	.
.	8e-	.
=31	=31	=31
*^	*	*
4rc	2.BBB- 2.BB-	8g-XL	.
.	.	8d-X	.
8rc	.	8g-	.
8F [8d-	.	8a-	.
4G-X 4d-]	.	8b-	.
.	.	8dd-J	.
=32	=32	=32	=32
*	*	*^	*
4rc	2.BB-	4.ff	4rc	.
4Gn 4d-	.	.	4f	.
.	.	8ee-	.	.
.	.	8qff/	.	.
4G 4d-	.	8ee-L	4f	.
.	.	8dd-J	.	.
*v	*v	*	*	*
=33	=33	=33	=33
4C	8raa	4rc	.
.	8ccL	.	.
4C 4G 4B-	8ff	4f	.
.	8dd-	.	.
4r	8f	4rc	.
.	8gJ	.	.
=34	=34	=34	=34
4r	2cc	4rc	.
4C 4G 4d-	.	4f	.
4C 4G 4d-	4b-	4f	.
=35	=35	=35	=35
4C	8raa	4rc	.
.	8b-L	.	.
4C 4F 4A-	8ee-	4e-	.
.	8cc	.	.
4r	8e-	4rc	.
.	8fJ	.	.
=36	=36	=36	=36
4r	2b-	4rc	.
4C 4F 4c	.	4e-	.
4C 4A- 4c	4a-	4e-	.
=37	=37	=37	=37
2.C 2.B-	2a-	8rc	.
.	.	8dd-L	.
.	.	8b-	.
.	.	[8d-J	.
.	4g	4d-]	.
=38	=38	=38	=38
2.C 2.A-	2g-X	8rc	.
.	.	8ccL	.
.	.	8a-	.
.	.	[8cJ	.
.	[4f	4c]	.
=39	=39	=39	=39
2.D- 2.A-	2f]	8rc	.
.	.	8b-L	.
.	.	8a-	.
.	.	[8B-J	.
.	[4f	4B-]	.
=40	=40	=40	=40
2.Dn 2.A-	2f]	8rc	.
.	.	8b-L	.
.	.	8a-	.
.	.	[8B-J	.
.	[4f-X	4B-]	.
=41	=41	=41	=41
2.E- 2.d-X	2f-]	8rc	.
.	.	8b-L	.
.	.	8a-	.
.	.	[8B-J	.
.	[4e-	4B-]	.
=42	=42	=42	=42
2E- 2d-	2e-]	8rc	.
.	.	8b-L	.
.	.	8g	.
.	.	8B-J	.
8EE- 8E-	8ee-	8d- 8g	.
8r	8raa	8rc	.
=43||	=43||	=43||	=43||
2.AA- 2.E-	12b-L	2.d-	.
.	12cc	.	.
.	12b-J	.	.
.	8a-L	.	.
.	8b-J	.	.
.	4ee-	.	.
=44	=44	=44	=44
2.AA- 2.E-	8fL	2.d-	.
.	8gJ	.	.
.	4b-	.	.
.	8a-L	.	.
.	8fJ	.	.
=45	=45	=45	=45
8AA- 8E-	8e-	8c	.
8r	8raa	8rc	.
4r	8cL	4rc	.
.	8d-J	.	.
4r	8e-L	4rc	.
.	24fL	.	.
.	24g	.	.
.	24fJJ	.	.
=46	=46	=46	=46
4r	8a-	4rc	.
.	8raa	.	.
4r	8cL	4rc	.
.	8d-J	.	.
8AA- 8E-	8e-L	8c	.
8r	16r	8rc	.
.	16e-Jk	.	.
=47	=47	=47	=47
8AA- 8E-	8e-	8B- 8d-	.
8r	8raa	8rc	.
4r	8B-L	4rc	.
.	8d-J	.	.
4r	8e-L	4rc	.
.	24fL	.	.
.	24g	.	.
.	24fJJ	.	.
=48	=48	=48	=48
4r	8a-	4rc	.
.	8raa	.	.
4r	8B-L	4rc	.
.	8d-J	.	.
8AA- 8E-	8e-L	8B- 8d-	.
8r	16r	8rc	.
.	16e-Jk	.	.
=49	=49	=49	=49
*	*	*^	*
4AA- 4E-	4raa	8.e-L	4A-\ 4c	.
.	.	16fJk	.	.
4r	2a-	4a-	4r	.
4DD- 4D-	.	4f	4A-\ 4d-	.
=50	=50	=50	=50	=50
4AAA- 4AA-	4raa	8.e-L	4A-\ 4c	.
.	.	16fJk	.	.
4r	2a-	4a-	4r	.
4DD- 4D-	.	4f	4A-\ 4d-	.
=51	=51	=51	=51	=51
4CC 4C	4raa	8.gL	4c\ 4en	.
.	.	16a-Jk	.	.
4r	2cc	4cc	4r	.
4FF 4F	.	4a-	4c\ 4f	.
=52	=52	=52	=52	=52
4EE- 4E-	4raa	8.b-L	4e-X\ 4g	.
.	.	16ccJk	.	.
4r	2ee-	4ee-	4r	.
4AA- 4A-	.	4cc	4e-\ 4a-	.
*	*	*v	*v	*
=53	=53	=53	=53
2.AA- 2.E-	12b-L	2.d-	.
.	12cc	.	.
.	12b-J	.	.
.	8a-L	.	.
.	8b-J	.	.
.	4ee-	.	.
=54	=54	=54	=54
2.AA- 2.E-	8fL	2.d-	.
.	8gJ	.	.
.	4b-	.	.
.	8a-L	.	.
.	8fJ	.	.
=55	=55	=55	=55
8AA- 8E-	8e-	8c	.
8r	8raa	8rc	.
4r	8cL	4rc	.
.	8d-J	.	.
4r	8e-L	4rc	.
.	24fL	.	.
.	24g	.	.
.	24fJJ	.	.
=56	=56	=56	=56
4r	8a-	4rc	.
.	8raa	.	.
4r	8cL	4rc	.
.	8d-J	.	.
8AA- 8E-	8e-L	8c	.
8r	16r	8rc	.
.	16e-Jk	.	.
=57	=57	=57	=57
8AA- 8E-	8e-	8B- 8d-	.
8r	8raa	8rc	.
4r	8B-L	4rc	.
.	8d-J	.	.
4r	8e-L	4rc	.
.	24fL	.	.
.	24g	.	.
.	24fJJ	.	.
=58	=58	=58	=58
4r	8a-	4rc	.
.	8raa	.	.
4r	8B-L	4rc	.
.	8d-J	.	.
8AA- 8E-	8e-L	8B- 8d-	.
8r	16r	8rc	.
.	16e-Jk	.	.
=59	=59	=59	=59
*	*	*^	*
4AA- 4E-	4raa	8.e-L	4A-\ 4c	.
.	.	16fJk	.	.
4r	2a-	4a-	4r	.
4DD- 4D-	.	4f	4A-\ 4d-	.
=60	=60	=60	=60	=60
4AAA- 4AA-	4raa	8.e-L	4A-\ 4c	.
.	.	16fJk	.	.
4r	2a-	4a-	4r	.
4DD- 4D-	.	4f	4A-\ 4d-	.
=61	=61	=61	=61	=61
4CC 4C	4raa	8.gL	4c\ 4en	.
.	.	16a-Jk	.	.
4r	2cc	4cc	4r	.
4FF 4F	.	4a-	4c\ 4f	.
=62	=62	=62	=62	=62
4EE- 4E-	4raa	8.b-L	4e-X\ 4g	.
.	.	16ccJk	.	.
4r	2ee-	4ee-	4r	.
4AA- 4A-	.	4cc	4e-\ 4a-	.
*	*v	*v	*v	*
=63	=63	=63
*^	*	*
4DD- 4D-	4rEE	8r	.
.	.	8ffL	.
4F 4f	8AnL	8cc	.
.	8cJ	8an	.
4F 4f	4B-	8b-	.
.	.	8ccJ	.
*v	*v	*	*
=64	=64	=64
*	*^	*
4BBB- 4BB-	8.ee-L	4rc	.
.	16dd-Jk	.	.
4G-X 4f	2d- 2dd-	4b-	.
4Gn 4f	.	4b-	.
=65	=65	=65	=65
4E- 4A- 4f-X	8.raa	4a-	.
.	16d- 16dd-	.	.
4E- 4B-- 4f-	8.d-L 8.dd-	4a-	.
.	16d-Jk 16dd-	.	.
4E- 4B-X 4f-	4d- [4dd-	4g	.
=66	=66	=66	=66
8.A-L 8.f-X	8.dd-L]	8.gL	.
16A-Jk 16e-	16ccJk	16a-Jk	.
8.A-L 8.e-	8.ccL	8.a-L	.
[16A-Jk [16dn	16ff-XJk	[16a-Jk [16cc	.
8A-L_ 8d]	8aa-L	4a-] 4cc]	.
8A-J] 8e-	8ee-J	.	.
*	*v	*v	*
=67	=67	=67
8qFF/ 8qF	.	.
*^	*	*
4DD-X 4D-X	4rEE	8r	.
.	.	8ffnL	.
4F 4f	8AnL	8cc	.
.	8cJ	8an	.
4F 4f	4B-	8b-	.
.	.	8ccJ	.
*v	*v	*	*
=68	=68	=68
*	*^	*
4BBB- 4BB-	8.ee-L	4rc	.
.	16dd-Jk	.	.
4G-X 4f	2d- 2dd-	4b-	.
4Gn 4f	.	4b-	.
=69	=69	=69	=69
4E- 4A- 4f-X	8.raa	8.b-L	.
.	16d- 16dd-	16b--Jk	.
4E- 4B-- 4f-	8.d-L 8.dd-	8.b--L	.
.	16d-Jk 16dd-	16a-Jk	.
4E- 4B-X 4f-	4d- [4dd-	8.a-L	.
.	.	16gJk	.
=70	=70	=70	=70
8.A-L 8.f-X	8.dd-L]	8.gL	.
16A-Jk 16e-	16ccJk	16a-Jk	.
8.A-L 8.e-	8.ccL	8.a-L	.
[16A-Jk [16dn	16ff-XJk	[16a-Jk [16cc	.
8A-L_ 8d]	8aa-L	4a-] 4cc]	.
8A-J] 8e-	8ee-J	.	.
*	*v	*v	*
=71	=71	=71
4DD-X 4D-X	4r	.
2A- 2c 2a-	2fn 2cc 2ffn	.
=72	=72	=72
4DD- 4D-	4r	.
2G 2Bn 2g	2f 2bn 2gg	.
=73	=73	=73
4CC 4C	4r	.
.	16qqf/LL	.
.	16qqb-X/	.
.	16qqgg/JJ	.
[2G [2B-X 2f	4ccc	.
.	8bbnL	.
.	8cccJ	.
=74	=74	=74
2.G] 2.B-] 2.en	8eee-XL	.
.	8ddd-	.
.	8bb-	.
.	8gg	.
.	8een	.
.	8dd-J	.
=75	=75	=75
*	*^	*
4CCC 4CC	2.ryy	8r	.
.	.	8bn	.
4C 4B-X 4en	.	8ccL	.
.	.	8qee-X/	.
.	.	8dd-J	.
4r	.	8e-XL	.
.	.	16r	.
.	.	16enJk	.
=76	=76	=76	=76
*	*	*^	*
8r	2.ryy	4.a-	4r	.
8BBn 8Bn	.	.	.	.
8CL 8c	.	.	8r	.
8D-J 8d-	.	4g-X	8B-X\	.
8EE-L 8E-	.	.	4d-\	.
16r	.	8gn	.	.
16EEnJk 16En	.	.	.	.
*	*	*v	*v	*
=77	=77	=77	=77
*^	*	*	*
*	*^	*	*	*
4.en	4.d-	2.FF/ 2.F	2.ryy	8b-L	.
.	.	.	.	8g	.
.	.	.	.	8b-	.
8f	4.c	.	.	8a-	.
4rc	.	.	.	8g	.
.	.	.	.	8fJ	.
*v	*v	*v	*	*	*
=78	=78	=78	=78
4AA- 4A-	4raa	8enL	.
.	.	[8fJ	.
[4A- 4Bn	8.ee-XL	2f]	.
.	16dd-Jk	.	.
4A-] 4c	4cc	.	.
=79	=79	=79	=79
*^	*	*	*
4.c	2G	8raa	2.f	.
.	.	8ccL	.	.
.	.	8ff	.	.
4.B-X	.	8dd-	.	.
.	4D-	8f	.	.
.	.	8gJ	.	.
=80	=80	=80	=80	=80
4G	2.D-	8ccL	4.f	.
.	.	8b-	.	.
4A-	.	8a-	.	.
.	.	8B-	8rc	.
4B-	.	8g	4rc	.
.	.	8fJ	.	.
*	*	*v	*v	*
=81	=81	=81	=81
4rc	2.C	8fL	.
.	.	8e-	.
[4B- 4d-	.	8f	.
.	.	8en	.
4B-] 4dn	.	8f#X	.
.	.	8gJ	.
=82	=82	=82	=82
4rc	2.C	8a-L	.
.	.	8g-X	.
4B- 4e-X	.	8a-	.
.	.	8gn	.
4G 4en	.	8an	.
.	.	8b-J	.
*v	*v	*	*
=83	=83	=83
*	*^	*
4CCC 4CC	2.ryy	8r	.
.	.	8bn	.
4C 4B-X 4en	.	8ccL	.
.	.	8qee-X/	.
.	.	8dd-J	.
4r	.	8e-XL	.
.	.	16r	.
.	.	16enJk	.
=84	=84	=84	=84
*	*	*^	*
8r	2.ryy	4.a-	4r	.
8BBn 8Bn	.	.	.	.
8CL 8c	.	.	8r	.
8D-J 8d-	.	4g-X	8B-X\	.
8EE-L 8E-	.	.	4d-\	.
16r	.	8gn	.	.
16EEnJk 16En	.	.	.	.
*	*	*v	*v	*
=85	=85	=85	=85
*^	*	*	*
*	*^	*	*	*
4.en	4.d-	2.FF/ 2.F	2.ryy	8b-L	.
.	.	.	.	8g	.
.	.	.	.	8b-	.
8f	4.c	.	.	8a-	.
4rc	.	.	.	8g	.
.	.	.	.	8fJ	.
*	*v	*v	*	*	*
=86	=86	=86	=86	=86
4rc	4AA- 4A-	4raa	8enL	.
.	.	.	8fJ	.
8.fL	2A-	8.aa-L	2cc	.
16e-XJk	.	16ggJk	.	.
4dn	.	4ff	.	.
*v	*v	*	*	*
=87	=87	=87	=87
[2.G [2.f	8raa	2.cc	.
.	8ggL	.	.
.	8ccc	.	.
.	8aa-	.	.
.	8cc	.	.
.	8ddnJ	.	.
=88	=88	=88	=88
2.G] 2.f]	8ggL	4.cc	.
.	8ff	.	.
.	8ee-	.	.
.	8f	8rc	.
.	8ddn	4rc	.
.	8ccJ	.	.
*	*v	*v	*
=89	=89	=89
*^	*	*
4.a-	2.G 2.f	8ccL	.
.	.	8b-	.
.	.	8cc	.
4g	.	8bn	.
.	.	8cc#X	.
8bn	.	8ddnJ	.
*v	*v	*	*
*clefG2	*	*
=90	=90	=90
*^	*	*
*	*^	*	*
4.bn	4.a-	2.c/	8ffL	.
.	.	.	8ddn	.
.	.	.	8ff	.
8cc	4.g	.	8ee-	.
4raa	.	.	8dd	.
.	.	.	8ccnJ	.
*v	*v	*v	*	*
*clefF4	*	*
=91	=91	=91
*^	*^	*
4rc	2.BB-	4raa	4rc	.
2E- 2dn	.	4.g 4.gg	2ddn	.
.	.	8g 8gg	.	.
=92	=92	=92	=92	=92
4E- 4dn	2.AAn	8gL 8gg	4ddn	.
.	.	8gJ	.	.
4G 4c	.	8f 8ff	4g 4cc	.
.	.	4e- 4ee-	.	.
4G 4c	.	.	4g 4cc	.
.	.	8c 8cc	.	.
=93	=93	=93	=93	=93
2.ryy	8BB-L 8B-	4raa	4rc	.
.	[8EE-J [8E-	.	.	.
.	4.EE-] 4.E-]	2b-	4c 4f#X	.
.	.	.	4B- 4g	.
.	8DDn 8Dn	.	.	.
=94	=94	=94	=94	=94
2.ryy	8DDnL 8Dn	4raa	4rc	.
.	8GGGJ 8GG	.	.	.
.	8r	8b-L	4dn	.
.	4CC 4C	8a-J	.	.
.	.	4g	4d	.
.	8BBB- 8BB-	.	.	.
=95	=95	=95	=95	=95
4rc	4AAA- 4AA-	4raa	4rc	.
2D-X 2c	2AA-	4.f 4.ff	2cc	.
.	.	8f 8ff	.	.
=96	=96	=96	=96	=96
4D- 4c	2.GG	8fL 8ff	4cc	.
.	.	8fJ	.	.
4F 4B-	.	8e- 8ee-	4f 4b-	.
.	.	4d- 4dd-	.	.
4F 4B-	.	.	4f 4b-	.
.	.	8B- 8b-	.	.
*v	*v	*	*	*
*	*v	*v	*
=97	=97	=97
8AA-L 8A-	4r	.
[8DD-J [8D-	.	.
4.DD-] 4.D-]	2En 2B- 2a-	.
8CC 8C	.	.
=98	=98	=98
*	*^	*
*	*	*^	*
8CCL 8C	2.ryy	4rc	4r	.
[8CCCJ [8CC	.	.	.	.
4CCC] 4CC]	.	8a-	4En/ 4B-	.
.	.	4g	.	.
4CCC 4CC	.	.	4E-X/ 4B-	.
.	.	8g-X	.	.
*	*	*v	*v	*
=99	=99	=99	=99
4FFF 4FF	2.ryy	8r	.
.	.	8en	.
4FF 4E-X 4An	.	8fL	.
.	.	8qa-X/	.
.	.	8g-XJ	.
4r	.	8A-XL	.
.	.	16r	.
.	.	[16AnJk	.
=100	=100	=100	=100
*^	*	*	*
2.ryy	8r	2d-	2.A]	.
.	8DD- 8D-	.	.	.
.	8DDnL 8Dn	.	.	.
.	8EE-J 8E-	.	.	.
.	8EEEnL 8EEn	4c	.	.
.	16r	.	.	.
.	16FFFJk 16FF	.	.	.
*	*	*v	*v	*
=101	=101	=101	=101
4rc	4AAA- 4AA-	8e-XL	.
.	.	8B-	.
8rc	4.GGG-X 4.GG-X	8e-	.
8Dn [8B-	.	8f	.
4E- 4B-]	.	8g-X	.
.	8GG-	8b-J	.
=102	=102	=102	=102
*	*	*^	*
8E-L	2.GG-X	4.dd-	2.e-	.
8BB-	.	.	.	.
8E-	.	.	.	.
8G-X	.	8cc	.	.
.	.	8qdd-/	.	.
8An	.	8ccL	.	.
8B-J	.	8b-J	.	.
=103	=103	=103	=103	=103
4d-	2AA- 2G-X	2.ryy	8r	.
.	.	.	8gn	.
4c	.	.	8a-L	.
.	.	.	8qcc/	.
.	.	.	8b-J	.
4rc	4rEE	.	8c-XL	.
.	.	.	16r	.
.	.	.	[16cnJk	.
=104	=104	=104	=104	=104
2.ryy	8r	2f	2.c]	.
.	8GG-X 8G-X	.	.	.
.	8GGnL 8Gn	.	.	.
.	8AA-J 8A-	.	.	.
.	8AAA-L 8AA-	4e-	.	.
.	16r	.	.	.
.	16AAAnJk 16AAn	.	.	.
*	*	*v	*v	*
=105	=105	=105	=105
4rc	2.BBB- 2.BB-	8g-XL	.
.	.	8d-	.
8rc	.	8g-	.
8F [8d-	.	8a-	.
4G-X 4d-]	.	8b-	.
.	.	8dd-J	.
=106	=106	=106	=106
*	*	*^	*
8GnL	2.BB-	4.ff	2.f 2.b-	.
8F	.	.	.	.
8G	.	.	.	.
8B-	.	8ee-	.	.
.	.	8qff/	.	.
8c	.	8ee-L	.	.
8d-J	.	8dd-J	.	.
*v	*v	*	*	*
*	*v	*v	*
=107	=107	=107
4CC 4C	8r	.
.	8ccL	.
4C 4G 4B- 4f	8ff	.
.	8dd-	.
4r	8f	.
.	8gJ	.
=108	=108	=108
4r	2cc	.
4C	.	.
4G 4d- 4f	4b-	.
=109	=109	=109
4CC 4C	8r	.
.	8b-L	.
4C 4F 4A- 4e-	8ee-	.
.	8cc	.
4r	8e-	.
.	8fJ	.
=110	=110	=110
4r	2b-	.
4C	.	.
4A- 4e-	4a-	.
=111	=111	=111
*	*^	*
2.C 2.B-	2a-	8rc	.
.	.	8dd-L	.
.	.	8b-	.
.	.	[8d-J	.
.	4g	4d-]	.
=112	=112	=112	=112
2.C 2.A-	2g-X	8rc	.
.	.	8ccL	.
.	.	8a-	.
.	.	[8cJ	.
.	[4f	4c]	.
=113	=113	=113	=113
2.D- 2.A-	2f]	8rc	.
.	.	8b-L	.
.	.	8a-	.
.	.	[8B-J	.
.	[4f	4B-]	.
=114	=114	=114	=114
2.D- 2.G	2f]	8rc	.
.	.	8b-L	.
.	.	8g	.
.	.	[8B-J	.
.	[4f	4B-]	.
=115	=115	=115	=115
2.C 2.G	2f]	8rc	.
.	.	8ccL	.
.	.	8g	.
.	.	[8B-J	.
.	4f	4B-]	.
=116	=116	=116	=116
2C 2G	2en	8rc	.
.	.	8ccL	.
.	.	8g	.
.	.	8B-J	.
8c 8g	4raa	8b- 8een 8ccc	.
8r	.	8rc	.
*	*v	*v	*
=117||	=117||	=117||
*k[b-]	*k[b-]	*
*	*^	*
2.FF 2.C	12gL	2.B-	.
.	12a	.	.
.	12gJ	.	.
.	8fL	.	.
.	8gJ	.	.
.	4cc	.	.
=118	=118	=118	=118
2.FF 2.C	8dL	2.B-	.
.	8eJ	.	.
.	4g	.	.
.	8fL	.	.
.	8dJ	.	.
=119	=119	=119	=119
8FF 8C	8c	8A	.
8r	8raa	8rc	.
4r	8AL	4rc	.
.	8B-J	.	.
4r	8cL	4rc	.
.	24dL	.	.
.	24e	.	.
.	24dJJ	.	.
=120	=120	=120	=120
4r	8f	4rc	.
.	8raa	.	.
4r	8AL	4rc	.
.	8B-J	.	.
8FF 8C	8cL	8A	.
8r	16r	8rc	.
.	16cJk	.	.
=121	=121	=121	=121
8FF 8C	8c	8G 8B-	.
8r	8raa	8rc	.
4r	8GL	4rc	.
.	8B-J	.	.
4r	8cL	4rc	.
.	24dL	.	.
.	24e	.	.
.	24dJJ	.	.
=122	=122	=122	=122
4r	4f	4rc	.
4r	8GL	4rc	.
.	8B-J	.	.
8FF 8C	8cL	8G 8B-	.
8r	16r	8rc	.
.	16cJk	.	.
=123	=123	=123	=123
*	*	*^	*
4FF 4C	4raa	8.cL	4F\ 4A	.
.	.	16dJk	.	.
4r	2f	4f	4r	.
4BBB- 4BB-	.	4d	4F\ 4B-	.
=124	=124	=124	=124	=124
4FFF 4FF	4raa	8.cL	4F\ 4A	.
.	.	16dJk	.	.
4r	2f	4f	4r	.
4BBB- 4BB-	.	4d	4F\ 4B-	.
=125	=125	=125	=125	=125
4AAA 4AA	4raa	8.eL	4A\ 4c#X	.
.	.	16fJk	.	.
4r	2a	4a	4r	.
4DD 4D	.	4f	4A\ 4d	.
=126	=126	=126	=126	=126
4CC 4C	4raa	8.gL	4cn\ 4e	.
.	.	16aJk	.	.
4r	2cc	4cc	4r	.
4FF 4F	.	4a	4c\ 4f	.
*	*	*v	*v	*
=127	=127	=127	=127
2.FF 2.C	12gL	2.B-	.
.	12a	.	.
.	12gJ	.	.
.	8fL	.	.
.	8gJ	.	.
.	4cc	.	.
=128	=128	=128	=128
2.FF 2.C	8dL	2.B-	.
.	8eJ	.	.
.	4g	.	.
.	8fL	.	.
.	8dJ	.	.
=129	=129	=129	=129
8FF 8C	8c	8A	.
8r	8raa	8rc	.
4r	8AL	4rc	.
.	8B-J	.	.
4r	8cL	4rc	.
.	24dL	.	.
.	24e	.	.
.	24dJJ	.	.
=130	=130	=130	=130
4r	4f	4rc	.
4r	8AL	4rc	.
.	8B-J	.	.
8FF 8C	8cL	8A	.
8r	16r	8rc	.
.	16cJk	.	.
=131	=131	=131	=131
8FF 8C	8c	8G 8B-	.
8r	8raa	8rc	.
4r	8GL	4rc	.
.	8B-J	.	.
4r	8cL	4rc	.
.	24dL	.	.
.	24e	.	.
.	24dJJ	.	.
=132	=132	=132	=132
4r	4f	4rc	.
4r	8GL	4rc	.
.	8B-J	.	.
8FF 8C	8cL	8G 8B-	.
8r	16r	8rc	.
.	16cJk	.	.
=133	=133	=133	=133
*	*	*^	*
4FF 4C	4raa	8.cL	4F\ 4A	.
.	.	16dJk	.	.
4r	2f	4f	4r	.
4BBB- 4BB-	.	4d	4F\ 4B-	.
=134	=134	=134	=134	=134
4FFF 4FF	4raa	8.cL	4F\ 4A	.
.	.	16dJk	.	.
4r	2f	4f	4r	.
4BBB- 4BB-	.	4d	4F\ 4B-	.
=135	=135	=135	=135	=135
4AAA 4AA	4raa	8.eL	4A\ 4c#X	.
.	.	16fJk	.	.
4r	2a	4a	4r	.
4DD 4D	.	4f	4A\ 4d	.
=136	=136	=136	=136	=136
4CC 4C	4raa	8.gL	4cn\ 4e	.
.	.	16aJk	.	.
4r	2cc	4cc	4r	.
4FF 4F	.	4a	4c\ 4f	.
*	*v	*v	*v	*
=137	=137	=137
*^	*	*
4BBB- 4BB-	4rEE	8r	.
.	.	8ddL	.
4D 4d	8F#XL	8a	.
.	8AJ	8f#X	.
4D 4d	4G	8g	.
.	.	8aJ	.
*v	*v	*	*
=138	=138	=138
*	*^	*
4GGG 4GG	8.ccL	4rc	.
.	16b-Jk	.	.
4E-X 4d	2B- 2b-	4g	.
4En 4d	.	4g	.
=139	=139	=139	=139
4C 4F 4d-X	8.raa	4f	.
.	16B- 16b-	.	.
4C 4G-X 4d-	8.B-L 8.b-	4f	.
.	16B-Jk 16b-	.	.
4C 4Gn 4d-	4B- [4b-	4e	.
=140	=140	=140	=140
8.FL 8.d-X	8.b-L]	8.eL	.
16FJk 16c	16aJk	16fJk	.
8.FL 8.c	8.aL	8.fL	.
[16FJk [16Bn	16dd-XJk	[16fJk [16a	.
8FL_ 8B]	8ffL	4f] 4a]	.
8FJ] 8c	8ccJ	.	.
*	*v	*v	*
=141	=141	=141
*^	*	*
4BBB-X 4BB-X	4rEE	8r	.
.	.	8ddnL	.
4D 4d	8F#XL	8a	.
.	8AJ	8f#X	.
4D 4d	4G	8g	.
.	.	8aJ	.
*v	*v	*	*
=142	=142	=142
*	*^	*
4GGG 4GG	8.ccL	4rc	.
.	16b-Jk	.	.
4E-X 4d	2B- 2b-	4g	.
4En 4d	.	4g	.
=143	=143	=143	=143
4C 4F 4d-X	8.raa	8.gL	.
.	16B- 16b-	16g-XJk	.
4C 4G-X 4d-	8.B-L 8.b-	8.g-L	.
.	16B-Jk 16b-	16fJk	.
4C 4Gn 4d-	4B- [4b-	8fL	.
.	.	8eJ	.
=144	=144	=144	=144
8.FL 8.d-X	8.b-L]	8.eL	.
16FJk 16c	16aJk	16fJk	.
8.FL 8.c	8.aL	8.fL	.
[16FJk [16Bn	16dd-XJk	[16fJk [16a	.
8FL_ 8B]	8ffL	4f] 4a]	.
8FJ] 8c	8ccJ	.	.
*	*v	*v	*
=145	=145	=145
4BBBn 4BBn	4r	.
2A 2d-X 2f 2a	2dd-X 2ff 2aa	.
=146	=146	=146
4CC 4C	4r	.
2B-X 2c 2e 2a	2cc 2ee 2aa 2ccc	.
=147	=147	=147
4FFF 4FF 4C	4r	.
2A 2c 2f 2a	2cc 2ff 2aa 2fff	.
==	==	==
*-	*-	*-
!!!system-decoration: {(*)}
!!!ENC: Bryan Jacob Bell
!!!END: November 2021 to April 2022
!!!PED: Günter Philipp
!!!PTL: Ausgewählte Klavierwerke (Edition Peters)
